!!!SOCIAL_FUNCTION:	songs of personal narratives concerning war
!!!PDT:	1918

Specific Region: Dakotas, Minnesota, Montana, Nebraska
!!!REG: Dakotas and Montana
!!!LING_GROUP: Siouan
!!!LANG: Tone
!!!OTL@ENG: When I Came You Cried
!!!ONM: No. 172
**kern
*Imale
*clefF4
*k[f#c#g#]
*M2/4
*MM84
4A
4A
=1||
*M3/4
[2A
8A]
8E
=2||
*M2/4
4A
8.A
16E
=3
[2E
=4
4E]
4F#
=5
4F#
4A
=6||
*M3/4
2.A
=7||
*M2/4
4A
8.A
16F#
=8||
*M3/4
2.F#
=9||
*M2/4
4E
8.E
16C#
=10||
*M3/4
2.C#
=11||
*M2/4
4C#
8.C#
16BB
=12||
*M3/4
2.BB
=13||
*M2/4
4BB
8.BB
16AA
=14||
*M3/4
2.AA
=15||
*M2/4
8AA
8AA
8AA
8AA
=16
[2FF#
=17
2FF#]
=18
8F#
16.F#
32F#
4A
=19||
*M3/4
8A
8A
4.A
8F#
=20||
*M2/4
8.A
16B
4A
=21||
*M3/4
2F#
4F#
=22||
*M2/4
8.E
16F#
4E
=23
2D
=24
4D
(8.D
16BB)
=25
4BB
4BB
=26
4BB
8.BB
16AA
=27||
*M3/4
2.AA
=28||
*M2/4
8AA
8AA
8AA
8AA
=29
2FF#
=30
4FF#
4FF#
==
*-
!!!CNT: Native American -- Sioux
!!!MRD: 1911/07//-1914///
!!!OCL: Frances Densmore
!!!YOR1: Teton Sioux Music, Bulletin 61,
!!!YOR2: Bureau of American Ethnology, Smithsonian Institution
!!!PPR: Government Printing Office
!!!PPP: Washington, D.C.
!!!PDT: 1918///
!!!ENC: Craig Stuart Sapp
!!!END: 2002/03/25/
!!!EEV: 2002/03/31/
!!!AGN: War Song/Song of Personal Narrative Concerning War
!!!MPN@@SIO: Shung'ka-lu'zahang
!!!MPN@ENG: Swift Dog
!!!TXO: Teton Sioux
!!!MLC: Standing Rock Reservation, South Dakota, United States of America
!!!ARL: 45.9/-100.7#
!!!catalog: Catalogue No. 585
!!!PPG: 406
!!!EFL: 177/245
!!!VTS: 1796268249
